images/3233927.svg

<?xml version="1.0" encoding="UTF-8"?>
<svg xmlns="http://www.w3.org/2000/svg" xmlns:xlink="http://www.w3.org/1999/xlink" width="300pt" height="300pt" viewBox="0 0 300 300" version="1.1">
<defs>
<g>
<symbol overflow="visible" id="glyph0-0">
<path style="stroke:none;" d="M 0.546875 1.9375 L 0.546875 -7.75 L 6.046875 -7.75 L 6.046875 1.9375 Z M 1.171875 1.328125 L 5.4375 1.328125 L 5.4375 -7.140625 L 1.171875 -7.140625 Z M 1.171875 1.328125 "/>
</symbol>
<symbol overflow="visible" id="glyph0-1">
<path style="stroke:none;" d="M 4.328125 -7.28125 C 3.546875 -7.28125 2.921875 -6.984375 2.453125 -6.390625 C 1.992188 -5.804688 1.765625 -5.007812 1.765625 -4 C 1.765625 -2.988281 1.992188 -2.1875 2.453125 -1.59375 C 2.921875 -1.007812 3.546875 -0.71875 4.328125 -0.71875 C 5.117188 -0.71875 5.742188 -1.007812 6.203125 -1.59375 C 6.660156 -2.1875 6.890625 -2.988281 6.890625 -4 C 6.890625 -5.007812 6.660156 -5.804688 6.203125 -6.390625 C 5.742188 -6.984375 5.117188 -7.28125 4.328125 -7.28125 Z M 4.328125 -8.171875 C 5.453125 -8.171875 6.351562 -7.789062 7.03125 -7.03125 C 7.707031 -6.28125 8.046875 -5.269531 8.046875 -4 C 8.046875 -2.738281 7.707031 -1.726562 7.03125 -0.96875 C 6.351562 -0.21875 5.453125 0.15625 4.328125 0.15625 C 3.203125 0.15625 2.300781 -0.21875 1.625 -0.96875 C 0.957031 -1.71875 0.625 -2.726562 0.625 -4 C 0.625 -5.269531 0.957031 -6.28125 1.625 -7.03125 C 2.300781 -7.789062 3.203125 -8.171875 4.328125 -8.171875 Z M 4.328125 -8.171875 "/>
</symbol>
<symbol overflow="visible" id="glyph0-2">
<path style="stroke:none;" d="M 1.078125 -8.015625 L 2.546875 -8.015625 L 6.09375 -1.3125 L 6.09375 -8.015625 L 7.15625 -8.015625 L 7.15625 0 L 5.6875 0 L 2.125 -6.703125 L 2.125 0 L 1.078125 0 Z M 1.078125 -8.015625 "/>
</symbol>
<symbol overflow="visible" id="glyph0-3">
<path style="stroke:none;" d="M 1.078125 -8.015625 L 2.171875 -8.015625 L 2.171875 -4.734375 L 6.109375 -4.734375 L 6.109375 -8.015625 L 7.1875 -8.015625 L 7.1875 0 L 6.109375 0 L 6.109375 -3.8125 L 2.171875 -3.8125 L 2.171875 0 L 1.078125 0 Z M 1.078125 -8.015625 "/>
</symbol>
<symbol overflow="visible" id="glyph0-4">
<path style="stroke:none;" d="M 1.078125 -8.015625 L 5.6875 -8.015625 L 5.6875 -7.109375 L 2.171875 -7.109375 L 2.171875 -4.75 L 5.34375 -4.75 L 5.34375 -3.828125 L 2.171875 -3.828125 L 2.171875 0 L 1.078125 0 Z M 1.078125 -8.015625 "/>
</symbol>
</g>
</defs>
<g id="surface53281">
<rect x="0" y="0" width="300" height="300" style="fill:rgb(100%,100%,100%);fill-opacity:1;stroke:none;"/>
<path style="fill:none;stroke-width:1.2;stroke-linecap:butt;stroke-linejoin:miter;stroke:rgb(0%,0%,0%);stroke-opacity:1;stroke-miterlimit:10;" d="M 35.25 200.425781 L 48.875 178.539062 "/>
<path style="fill:none;stroke-width:1.2;stroke-linecap:butt;stroke-linejoin:miter;stroke:rgb(0%,0%,0%);stroke-opacity:1;stroke-miterlimit:10;" d="M 51.550781 177.113281 L 45.480469 165.742188 "/>
<path style="fill:none;stroke-width:1.2;stroke-linecap:butt;stroke-linejoin:miter;stroke:rgb(100%,0%,0%);stroke-opacity:1;stroke-miterlimit:10;" d="M 45.480469 165.742188 L 39.410156 154.367188 "/>
<path style="fill:none;stroke-width:1.2;stroke-linecap:butt;stroke-linejoin:miter;stroke:rgb(0%,0%,0%);stroke-opacity:1;stroke-miterlimit:10;" d="M 46.199219 179.96875 L 40.128906 168.597656 "/>
<path style="fill:none;stroke-width:1.2;stroke-linecap:butt;stroke-linejoin:miter;stroke:rgb(100%,0%,0%);stroke-opacity:1;stroke-miterlimit:10;" d="M 40.128906 168.597656 L 34.058594 157.226562 "/>
<path style="fill:none;stroke-width:1.2;stroke-linecap:butt;stroke-linejoin:miter;stroke:rgb(0%,0%,0%);stroke-opacity:1;stroke-miterlimit:10;" d="M 48.875 178.539062 L 61.757812 178.96875 "/>
<path style="fill:none;stroke-width:1.2;stroke-linecap:butt;stroke-linejoin:miter;stroke:rgb(0%,0%,100%);stroke-opacity:1;stroke-miterlimit:10;" d="M 61.757812 178.96875 L 74.640625 179.398438 "/>
<path style=" stroke:none;fill-rule:nonzero;fill:rgb(100%,100%,100%);fill-opacity:1;" d="M 27.734375 149.296875 L 36.734375 149.296875 L 36.734375 162.296875 L 27.734375 162.296875 Z M 27.734375 149.296875 "/>
<g style="fill:rgb(100%,0%,0%);fill-opacity:1;">
  <use xlink:href="#glyph0-1" x="27.734375" y="159.198242"/>
</g>
<path style="fill:none;stroke-width:1.2;stroke-linecap:butt;stroke-linejoin:miter;stroke:rgb(0%,0%,100%);stroke-opacity:1;stroke-miterlimit:10;" d="M 74.640625 179.398438 L 81.453125 168.453125 "/>
<path style="fill:none;stroke-width:1.2;stroke-linecap:butt;stroke-linejoin:miter;stroke:rgb(0%,0%,0%);stroke-opacity:1;stroke-miterlimit:10;" d="M 81.453125 168.453125 L 88.269531 157.511719 "/>
<path style=" stroke:none;fill-rule:nonzero;fill:rgb(100%,100%,100%);fill-opacity:1;" d="M 66.640625 172.898438 L 83.640625 172.898438 L 83.640625 185.898438 L 66.640625 185.898438 Z M 66.640625 172.898438 "/>
<g style="fill:rgb(0%,0%,100%);fill-opacity:1;">
  <use xlink:href="#glyph0-2" x="66.640625" y="182.799805"/>
  <use xlink:href="#glyph0-3" x="74.624023" y="182.799805"/>
</g>
<path style="fill:none;stroke-width:1.2;stroke-linecap:butt;stroke-linejoin:miter;stroke:rgb(0%,0%,0%);stroke-opacity:1;stroke-miterlimit:10;" d="M 88.269531 157.511719 L 114.035156 158.371094 "/>
<path style="fill:none;stroke-width:1.2;stroke-linecap:butt;stroke-linejoin:miter;stroke:rgb(0%,0%,0%);stroke-opacity:1;stroke-miterlimit:10;" d="M 114.035156 158.371094 L 120.847656 147.425781 "/>
<path style="fill:none;stroke-width:1.2;stroke-linecap:butt;stroke-linejoin:miter;stroke:rgb(0%,0%,100%);stroke-opacity:1;stroke-miterlimit:10;" d="M 120.847656 147.425781 L 127.660156 136.484375 "/>
<path style="fill:none;stroke-width:1.2;stroke-linecap:butt;stroke-linejoin:miter;stroke:rgb(0%,0%,100%);stroke-opacity:1;stroke-miterlimit:10;" d="M 127.660156 136.484375 L 140.542969 136.914062 "/>
<path style="fill:none;stroke-width:1.2;stroke-linecap:butt;stroke-linejoin:miter;stroke:rgb(0%,0%,0%);stroke-opacity:1;stroke-miterlimit:10;" d="M 140.542969 136.914062 L 153.425781 137.34375 "/>
<path style=" stroke:none;fill-rule:nonzero;fill:rgb(100%,100%,100%);fill-opacity:1;" d="M 119.660156 129.984375 L 136.660156 129.984375 L 136.660156 142.984375 L 119.660156 142.984375 Z M 119.660156 129.984375 "/>
<g style="fill:rgb(0%,0%,100%);fill-opacity:1;">
  <use xlink:href="#glyph0-2" x="119.660156" y="139.885742"/>
  <use xlink:href="#glyph0-3" x="127.643555" y="139.885742"/>
</g>
<path style="fill:none;stroke-width:1.2;stroke-linecap:butt;stroke-linejoin:miter;stroke:rgb(0%,0%,0%);stroke-opacity:1;stroke-miterlimit:10;" d="M 153.425781 137.34375 L 159.496094 148.714844 "/>
<path style="fill:none;stroke-width:1.2;stroke-linecap:butt;stroke-linejoin:miter;stroke:rgb(0%,0%,100%);stroke-opacity:1;stroke-miterlimit:10;" d="M 159.496094 148.714844 L 165.566406 160.085938 "/>
<path style="fill:none;stroke-width:1.2;stroke-linecap:butt;stroke-linejoin:miter;stroke:rgb(0%,0%,0%);stroke-opacity:1;stroke-miterlimit:10;" d="M 159.992188 136.761719 L 164.847656 145.855469 "/>
<path style="fill:none;stroke-width:1.2;stroke-linecap:butt;stroke-linejoin:miter;stroke:rgb(0%,0%,100%);stroke-opacity:1;stroke-miterlimit:10;" d="M 164.847656 145.855469 L 169.703125 154.953125 "/>
<path style="fill:none;stroke-width:1.2;stroke-linecap:butt;stroke-linejoin:miter;stroke:rgb(0%,0%,0%);stroke-opacity:1;stroke-miterlimit:10;" d="M 167.050781 115.457031 L 153.425781 137.34375 "/>
<path style="fill:none;stroke-width:1.2;stroke-linecap:butt;stroke-linejoin:miter;stroke:rgb(0%,0%,100%);stroke-opacity:1;stroke-miterlimit:10;" d="M 165.566406 160.085938 L 178.449219 160.515625 "/>
<path style="fill:none;stroke-width:1.2;stroke-linecap:butt;stroke-linejoin:miter;stroke:rgb(0%,0%,0%);stroke-opacity:1;stroke-miterlimit:10;" d="M 178.449219 160.515625 L 191.332031 160.941406 "/>
<path style=" stroke:none;fill-rule:nonzero;fill:rgb(100%,100%,100%);fill-opacity:1;" d="M 161.566406 153.585938 L 169.566406 153.585938 L 169.566406 166.585938 L 161.566406 166.585938 Z M 161.566406 153.585938 "/>
<g style="fill:rgb(0%,0%,100%);fill-opacity:1;">
  <use xlink:href="#glyph0-2" x="161.566406" y="163.487305"/>
</g>
<path style="fill:none;stroke-width:1.2;stroke-linecap:butt;stroke-linejoin:miter;stroke:rgb(0%,0%,0%);stroke-opacity:1;stroke-miterlimit:10;" d="M 191.332031 160.941406 L 198.144531 150 "/>
<path style="fill:none;stroke-width:1.2;stroke-linecap:butt;stroke-linejoin:miter;stroke:rgb(0%,0%,100%);stroke-opacity:1;stroke-miterlimit:10;" d="M 198.144531 150 L 204.957031 139.058594 "/>
<path style="fill:none;stroke-width:1.2;stroke-linecap:butt;stroke-linejoin:miter;stroke:rgb(0%,0%,0%);stroke-opacity:1;stroke-miterlimit:10;" d="M 187.546875 155.546875 L 192.996094 146.792969 "/>
<path style="fill:none;stroke-width:1.2;stroke-linecap:butt;stroke-linejoin:miter;stroke:rgb(0%,0%,100%);stroke-opacity:1;stroke-miterlimit:10;" d="M 192.996094 146.792969 L 198.445312 138.039062 "/>
<path style="fill:none;stroke-width:1.2;stroke-linecap:butt;stroke-linejoin:miter;stroke:rgb(0%,0%,0%);stroke-opacity:1;stroke-miterlimit:10;" d="M 191.332031 160.941406 L 203.472656 183.6875 "/>
<path style="fill:none;stroke-width:1.2;stroke-linecap:butt;stroke-linejoin:miter;stroke:rgb(0%,0%,100%);stroke-opacity:1;stroke-miterlimit:10;" d="M 204.957031 139.058594 L 198.886719 127.6875 "/>
<path style="fill:none;stroke-width:1.2;stroke-linecap:butt;stroke-linejoin:miter;stroke:rgb(0%,0%,0%);stroke-opacity:1;stroke-miterlimit:10;" d="M 198.886719 127.6875 L 192.816406 116.3125 "/>
<path style=" stroke:none;fill-rule:nonzero;fill:rgb(100%,100%,100%);fill-opacity:1;" d="M 200.957031 132.558594 L 208.957031 132.558594 L 208.957031 145.558594 L 200.957031 145.558594 Z M 200.957031 132.558594 "/>
<g style="fill:rgb(0%,0%,100%);fill-opacity:1;">
  <use xlink:href="#glyph0-2" x="200.957031" y="142.459961"/>
</g>
<path style="fill:none;stroke-width:1.2;stroke-linecap:butt;stroke-linejoin:miter;stroke:rgb(0%,0%,0%);stroke-opacity:1;stroke-miterlimit:10;" d="M 192.816406 116.3125 L 206.445312 94.429688 "/>
<path style="fill:none;stroke-width:1.2;stroke-linecap:butt;stroke-linejoin:miter;stroke:rgb(0%,0%,0%);stroke-opacity:1;stroke-miterlimit:10;" d="M 189.03125 110.917969 L 199.929688 93.410156 "/>
<path style="fill:none;stroke-width:1.2;stroke-linecap:butt;stroke-linejoin:miter;stroke:rgb(0%,0%,0%);stroke-opacity:1;stroke-miterlimit:10;" d="M 167.050781 115.457031 L 192.816406 116.3125 "/>
<path style="fill:none;stroke-width:1.2;stroke-linecap:butt;stroke-linejoin:miter;stroke:rgb(0%,0%,0%);stroke-opacity:1;stroke-miterlimit:10;" d="M 206.445312 94.429688 L 194.304688 71.6875 "/>
<path style="fill:none;stroke-width:1.2;stroke-linecap:butt;stroke-linejoin:miter;stroke:rgb(0%,0%,0%);stroke-opacity:1;stroke-miterlimit:10;" d="M 194.304688 71.6875 L 168.535156 70.828125 "/>
<path style="fill:none;stroke-width:1.2;stroke-linecap:butt;stroke-linejoin:miter;stroke:rgb(0%,0%,0%);stroke-opacity:1;stroke-miterlimit:10;" d="M 191.523438 77.664062 L 170.910156 76.976562 "/>
<path style="fill:none;stroke-width:1.2;stroke-linecap:butt;stroke-linejoin:miter;stroke:rgb(0%,0%,0%);stroke-opacity:1;stroke-miterlimit:10;" d="M 168.535156 70.828125 L 154.910156 92.714844 "/>
<path style="fill:none;stroke-width:1.2;stroke-linecap:butt;stroke-linejoin:miter;stroke:rgb(0%,0%,0%);stroke-opacity:1;stroke-miterlimit:10;" d="M 154.910156 92.714844 L 167.050781 115.457031 "/>
<path style="fill:none;stroke-width:1.2;stroke-linecap:butt;stroke-linejoin:miter;stroke:rgb(0%,0%,0%);stroke-opacity:1;stroke-miterlimit:10;" d="M 161.476562 92.132812 L 171.1875 110.324219 "/>
<path style="fill:none;stroke-width:1.2;stroke-linecap:butt;stroke-linejoin:miter;stroke:rgb(0%,0%,0%);stroke-opacity:1;stroke-miterlimit:10;" d="M 203.472656 183.6875 L 189.847656 205.570312 "/>
<path style="fill:none;stroke-width:1.2;stroke-linecap:butt;stroke-linejoin:miter;stroke:rgb(0%,0%,0%);stroke-opacity:1;stroke-miterlimit:10;" d="M 207.257812 189.082031 L 196.359375 206.589844 "/>
<path style="fill:none;stroke-width:1.2;stroke-linecap:butt;stroke-linejoin:miter;stroke:rgb(0%,0%,0%);stroke-opacity:1;stroke-miterlimit:10;" d="M 229.238281 184.542969 L 203.472656 183.6875 "/>
<path style="fill:none;stroke-width:1.2;stroke-linecap:butt;stroke-linejoin:miter;stroke:rgb(0%,0%,0%);stroke-opacity:1;stroke-miterlimit:10;" d="M 189.847656 205.570312 L 201.988281 228.3125 "/>
<path style="fill:none;stroke-width:1.2;stroke-linecap:butt;stroke-linejoin:miter;stroke:rgb(0%,0%,0%);stroke-opacity:1;stroke-miterlimit:10;" d="M 201.988281 228.3125 L 227.753906 229.171875 "/>
<path style="fill:none;stroke-width:1.2;stroke-linecap:butt;stroke-linejoin:miter;stroke:rgb(0%,0%,0%);stroke-opacity:1;stroke-miterlimit:10;" d="M 204.765625 222.335938 L 225.378906 223.023438 "/>
<path style="fill:none;stroke-width:1.2;stroke-linecap:butt;stroke-linejoin:miter;stroke:rgb(0%,0%,0%);stroke-opacity:1;stroke-miterlimit:10;" d="M 227.753906 229.171875 L 241.378906 207.285156 "/>
<path style="fill:none;stroke-width:1.2;stroke-linecap:butt;stroke-linejoin:miter;stroke:rgb(0%,0%,0%);stroke-opacity:1;stroke-miterlimit:10;" d="M 241.378906 207.285156 L 229.238281 184.542969 "/>
<path style="fill:none;stroke-width:1.2;stroke-linecap:butt;stroke-linejoin:miter;stroke:rgb(0%,0%,0%);stroke-opacity:1;stroke-miterlimit:10;" d="M 234.8125 207.867188 L 225.101562 189.675781 "/>
<path style="fill:none;stroke-width:1.2;stroke-linecap:butt;stroke-linejoin:miter;stroke:rgb(0%,0%,0%);stroke-opacity:1;stroke-miterlimit:10;" d="M 229.238281 184.542969 L 242.863281 162.65625 "/>
<path style="fill:none;stroke-width:1.2;stroke-linecap:butt;stroke-linejoin:miter;stroke:rgb(0%,0%,0%);stroke-opacity:1;stroke-miterlimit:10;" d="M 242.863281 162.65625 L 249.675781 151.714844 "/>
<path style="fill:none;stroke-width:1.2;stroke-linecap:butt;stroke-linejoin:miter;stroke:rgb(20%,80%,80%);stroke-opacity:1;stroke-miterlimit:10;" d="M 249.675781 151.714844 L 256.492188 140.773438 "/>
<path style="fill:none;stroke-width:1.2;stroke-linecap:butt;stroke-linejoin:miter;stroke:rgb(0%,0%,0%);stroke-opacity:1;stroke-miterlimit:10;" d="M 242.863281 162.65625 L 253.808594 169.472656 "/>
<path style="fill:none;stroke-width:1.2;stroke-linecap:butt;stroke-linejoin:miter;stroke:rgb(20%,80%,80%);stroke-opacity:1;stroke-miterlimit:10;" d="M 253.808594 169.472656 L 264.75 176.285156 "/>
<path style="fill:none;stroke-width:1.2;stroke-linecap:butt;stroke-linejoin:miter;stroke:rgb(0%,0%,0%);stroke-opacity:1;stroke-miterlimit:10;" d="M 242.863281 162.65625 L 231.921875 155.84375 "/>
<path style="fill:none;stroke-width:1.2;stroke-linecap:butt;stroke-linejoin:miter;stroke:rgb(20%,80%,80%);stroke-opacity:1;stroke-miterlimit:10;" d="M 231.921875 155.84375 L 220.980469 149.03125 "/>
<path style=" stroke:none;fill-rule:nonzero;fill:rgb(100%,100%,100%);fill-opacity:1;" d="M 253.492188 134.273438 L 260.492188 134.273438 L 260.492188 147.273438 L 253.492188 147.273438 Z M 253.492188 134.273438 "/>
<g style="fill:rgb(20%,80%,80%);fill-opacity:1;">
  <use xlink:href="#glyph0-4" x="253.492188" y="144.174805"/>
</g>
<path style=" stroke:none;fill-rule:nonzero;fill:rgb(100%,100%,100%);fill-opacity:1;" d="M 261.75 169.785156 L 268.75 169.785156 L 268.75 182.785156 L 261.75 182.785156 Z M 261.75 169.785156 "/>
<g style="fill:rgb(20%,80%,80%);fill-opacity:1;">
  <use xlink:href="#glyph0-4" x="261.75" y="179.686523"/>
</g>
<path style=" stroke:none;fill-rule:nonzero;fill:rgb(100%,100%,100%);fill-opacity:1;" d="M 213.980469 142.53125 L 220.980469 142.53125 L 220.980469 155.53125 L 213.980469 155.53125 Z M 213.980469 142.53125 "/>
<g style="fill:rgb(20%,80%,80%);fill-opacity:1;">
  <use xlink:href="#glyph0-4" x="213.980469" y="152.432617"/>
</g>
</g>
</svg>

<svg xmlns="http://www.w3.org/2000/svg" xmlns:xlink="http://www.w3.org/1999/xlink" width="300pt" height="300pt" viewBox="0 0 300 300"><defs><symbol overflow="visible"><path d="M.547 1.938V-7.75h5.5v9.688zm.625-.61h4.266v-8.47H1.171zm0 0"/></symbol><symbol overflow="visible" id="a"><path d="M4.328-7.28c-.78 0-1.406.296-1.875.89-.46.585-.687 1.382-.687 2.39 0 1.012.226 1.813.687 2.406.47.586 1.094.875 1.875.875.79 0 1.414-.288 1.875-.874.457-.593.688-1.394.688-2.406 0-1.008-.23-1.805-.687-2.39-.46-.594-1.086-.89-1.875-.89zm0-.892c1.125 0 2.024.383 2.703 1.14C7.708-6.28 8.048-5.27 8.048-4c0 1.262-.34 2.273-1.016 3.03C6.353-.22 5.454.157 4.33.157S2.3-.22 1.625-.97c-.668-.75-1-1.757-1-3.03 0-1.27.332-2.28 1-3.03.676-.76 1.578-1.142 2.703-1.142zm0 0"/></symbol><symbol overflow="visible" id="b"><path d="M1.078-8.016h1.47l3.546 6.704v-6.704h1.062V0H5.688L2.124-6.703V0H1.078zm0 0"/></symbol><symbol overflow="visible" id="c"><path d="M1.078-8.016h1.094v3.282H6.11v-3.282h1.077V0H6.11v-3.813H2.17V0H1.078zm0 0"/></symbol><symbol overflow="visible" id="d"><path d="M1.078-8.016h4.61v.907H2.171v2.36h3.172v.922H2.172V0H1.078zm0 0"/></symbol></defs><g><path fill="#fff" d="M0 0h300v300H0z"/><path d="M35.25 200.426l13.625-21.887M51.55 177.113l-6.07-11.37" stroke-width="1.2" stroke="#000" stroke-miterlimit="10" fill="none"/><path d="M45.48 165.742l-6.07-11.375" stroke-width="1.2" stroke="#f00" stroke-miterlimit="10" fill="none"/><path d="M46.2 179.97l-6.07-11.372" stroke-width="1.2" stroke="#000" stroke-miterlimit="10" fill="none"/><path d="M40.13 168.598l-6.07-11.37" stroke-width="1.2" stroke="#f00" stroke-miterlimit="10" fill="none"/><path d="M48.875 178.54l12.883.43" stroke-width="1.2" stroke="#000" stroke-miterlimit="10" fill="none"/><path d="M61.758 178.97l12.883.428" stroke-width="1.2" stroke="#00f" stroke-miterlimit="10" fill="none"/><path d="M27.734 149.297h9v13h-9zm0 0" fill="#fff"/><use xlink:href="#a" x="27.734" y="159.198" fill="#f00"/><path d="M74.64 179.398l6.813-10.945" stroke-width="1.2" stroke="#00f" stroke-miterlimit="10" fill="none"/><path d="M81.453 168.453l6.817-10.94" stroke-width="1.2" stroke="#000" stroke-miterlimit="10" fill="none"/><path d="M66.64 172.898h17v13h-17zm0 0" fill="#fff"/><g fill="#00f"><use xlink:href="#b" x="66.641" y="182.8"/><use xlink:href="#c" x="74.624" y="182.8"/></g><path d="M88.27 157.512l25.765.86M114.035 158.37l6.813-10.944" stroke-width="1.2" stroke="#000" stroke-miterlimit="10" fill="none"/><path d="M120.848 147.426l6.812-10.942M127.66 136.484l12.883.43" stroke-width="1.2" stroke="#00f" stroke-miterlimit="10" fill="none"/><path d="M140.543 136.914l12.883.43" stroke-width="1.2" stroke="#000" stroke-miterlimit="10" fill="none"/><path d="M119.66 129.984h17v13h-17zm0 0" fill="#fff"/><g fill="#00f"><use xlink:href="#b" x="119.66" y="139.886"/><use xlink:href="#c" x="127.644" y="139.886"/></g><path d="M153.426 137.344l6.07 11.37" stroke-width="1.2" stroke="#000" stroke-miterlimit="10" fill="none"/><path d="M159.496 148.715l6.07 11.37" stroke-width="1.2" stroke="#00f" stroke-miterlimit="10" fill="none"/><path d="M159.992 136.762l4.856 9.093" stroke-width="1.2" stroke="#000" stroke-miterlimit="10" fill="none"/><path d="M164.848 145.855l4.855 9.098" stroke-width="1.2" stroke="#00f" stroke-miterlimit="10" fill="none"/><path d="M167.05 115.457l-13.624 21.887" stroke-width="1.2" stroke="#000" stroke-miterlimit="10" fill="none"/><path d="M165.566 160.086l12.883.43" stroke-width="1.2" stroke="#00f" stroke-miterlimit="10" fill="none"/><path d="M178.45 160.516l12.882.425" stroke-width="1.2" stroke="#000" stroke-miterlimit="10" fill="none"/><path d="M161.566 153.586h8v13h-8zm0 0" fill="#fff"/><use xlink:href="#b" x="161.566" y="163.487" fill="#00f"/><path d="M191.332 160.94l6.813-10.94" stroke-width="1.2" stroke="#000" stroke-miterlimit="10" fill="none"/><path d="M198.145 150l6.812-10.94" stroke-width="1.2" stroke="#00f" stroke-miterlimit="10" fill="none"/><path d="M187.547 155.547l5.45-8.754" stroke-width="1.2" stroke="#000" stroke-miterlimit="10" fill="none"/><path d="M192.996 146.793l5.45-8.754" stroke-width="1.2" stroke="#00f" stroke-miterlimit="10" fill="none"/><path d="M191.332 160.94l12.14 22.748" stroke-width="1.2" stroke="#000" stroke-miterlimit="10" fill="none"/><path d="M204.957 139.06l-6.07-11.373" stroke-width="1.2" stroke="#00f" stroke-miterlimit="10" fill="none"/><path d="M198.887 127.688l-6.07-11.376" stroke-width="1.2" stroke="#000" stroke-miterlimit="10" fill="none"/><path d="M200.957 132.56h8v13h-8zm0 0" fill="#fff"/><use xlink:href="#b" x="200.957" y="142.46" fill="#00f"/><path d="M192.816 116.313l13.63-21.883M189.03 110.918l10.9-17.508M167.05 115.457l25.766.856M206.445 94.43l-12.14-22.743M194.305 71.688l-25.77-.86M191.523 77.664l-20.613-.687M168.535 70.828L154.91 92.715M154.91 92.715l12.14 22.742M161.477 92.133l9.71 18.19M203.473 183.688l-13.625 21.882M207.258 189.082l-10.9 17.508M229.238 184.543l-25.765-.856M189.848 205.57l12.14 22.743M201.988 228.313l25.766.86M204.766 222.336l20.613.687M227.754 229.172l13.625-21.887M241.38 207.285l-12.142-22.742M234.813 207.867l-9.71-18.19M229.238 184.543l13.625-21.887M242.863 162.656l6.813-10.94" stroke-width="1.2" stroke="#000" stroke-miterlimit="10" fill="none"/><path d="M249.676 151.715l6.816-10.942" stroke-width="1.2" stroke="#3cc" stroke-miterlimit="10" fill="none"/><path d="M242.863 162.656l10.946 6.817" stroke-width="1.2" stroke="#000" stroke-miterlimit="10" fill="none"/><path d="M253.81 169.473l10.94 6.812" stroke-width="1.2" stroke="#3cc" stroke-miterlimit="10" fill="none"/><path d="M242.863 162.656l-10.94-6.812" stroke-width="1.2" stroke="#000" stroke-miterlimit="10" fill="none"/><path d="M231.922 155.844l-10.942-6.813" stroke-width="1.2" stroke="#3cc" stroke-miterlimit="10" fill="none"/><path d="M253.492 134.273h7v13h-7zm0 0" fill="#fff"/><use xlink:href="#d" x="253.492" y="144.175" fill="#3cc"/><path d="M261.75 169.785h7v13h-7zm0 0" fill="#fff"/><use xlink:href="#d" x="261.75" y="179.687" fill="#3cc"/><path d="M213.98 142.53h7v13h-7zm0 0" fill="#fff"/><use xlink:href="#d" x="213.98" y="152.433" fill="#3cc"/></g></svg>
